X: 11768
T: Elizabeth Clare
R: waltz
M: 3/4
K: Gmajor
B3 B cB|A2 B3 A|G2 E2 D2|D3 D GA|
[1 B2 d2 e2|d2 B2 G2|d2 c2 B2|A3 A GA:|
[2 B2 d2 e2|e2 d2 B2|A2 G2 F2|G3||
e2 d3 B|c2 B3 c|d2 c2 B2|A3 G AB|
c3 c dc|B2 c3 B|A2 G2 E2|D3 D GA|
c3 B cB|A2 B3 A|G2 E2 D2|D3 D GA|
B2 d2 e2|d2 c2 B2|A2 G2 F2|G3:|

